X: 0
T: The Glen Cottage
C: Trad
M: 2/4
L: 1/8
K: Edor
|: "Em"GE ED | B,E E>F | GF ED | "G"GA "D"B>A | 
"Em"GE ED | B,E E>A |[1 "G"BA "D"GF | "Em"E2 B>A :|[2 "G"BA "D"GF | "Em"E2 E2 || 
|: "Em"Be e>f | eB BA | "Bm"Be "D"df | "Em"e2 ef | 
"G"ga/g/ "D"f2 | "Em"ed "Bm"BA | "D"Be B/d/B/A/ |[1 "Em"FE E2 :|][2 "Last time only""Em"FE |]